X:1
T:054 - Glória e Honra
T:Letra: Richard Holden (1828-1886)
T:Música: Martin Madan (1726-1790)
M:4/4
L:1/4
Q:1/4=100
K:G
V:1
"G"G>A BG | B>c dB | "C"ec "Em"dB | "Am"c "D7"A "G"BG | "C"cB "Am"AG | "D7"FGAD | d A3//c// "G"BA | "D7"d A3//c// "G"B3//A// G | cB "C"e d/c/ | "G/D"B2 "D"(A>G) | "G"G4 |]
w: Gló-ria, hon-rae po-de-ri-o Sem-pre se-jam ao Cor-dei-ro, Je-sus Cris-to, nos-so Mes-tre! A_le-lui-a! A_le-lui_a! Vin-de to-dos_ oa-do_rar!       
W:		                    
W: 
W: Glória, honra e poderio
W: Sempre sejam ao Cordeiro,
W: Jesus Cristo, nosso Mestre!
W: Aleluia! Aleluia! 
W: Vinde todos o adorar!
W:         
W:





